logo/highcharts.svg

<svg viewBox="0 0 256 243" xmlns="http://www.w3.org/2000/svg"><path fill="#78758C" d="M178.6 119.7l-1.8-3.1 -60.3-19.7 -1.7 2 -2.6.6 -53.6 125.2 .7 3.8L188.4 174l1.1-2.2 -9-50 -1.9-2.1Z"/><path fill="#A3EDBA" d="M59.3 228.5l55.5-129.6L.8 61.7l58.5 166.8Z"/><path fill="#8087E8" d="M157.1.3l-42.3 98.6 63.8 20.8 .3-.8L157.5 1.2l-.4-.9Z"/><path fill="#30426B" d="M178.6 119.7l9.8 54.3 4.5-.1 61.1-26.5 2.7-2.3 -3.2-2.7 -71.9-24.2 -3 1.5Z"/><g fill="#6699A1"><path d="M188.4 174l12.5 69.4 55.8-98.3 -68.3 28.9Z"/><path d="M157.1.3l21.5 119.4 78.1 25.4L157.1.3Z"/></g></svg>

<?xml version="1.0" encoding="UTF-8" standalone="no"?>
<svg width="256px" height="243px" viewBox="0 0 256 243" version="1.1" xmlns="http://www.w3.org/2000/svg" xmlns:xlink="http://www.w3.org/1999/xlink" preserveAspectRatio="xMidYMid">
	<g>
		<path d="M178.6,119.7 L176.8,116.6 L116.5,96.9 L114.8,98.9 L112.2,99.5 L58.6,224.7 L59.3,228.5 L188.4,174 L189.5,171.8 L180.5,121.8 L178.6,119.7 Z" fill="#78758C"></path>
		<path d="M59.3,228.5 L114.8,98.9 L0.8,61.7 L59.3,228.5 Z" fill="#A3EDBA"></path>
		<path d="M157.1,0.3 L114.8,98.9 L178.6,119.7 L178.9,118.9 L157.5,1.2 L157.1,0.3 Z" fill="#8087E8"></path>
		<path d="M178.6,119.7 L188.4,174 L192.9,173.9 L254,147.4 L256.7,145.1 L253.5,142.4 L181.6,118.2 L178.6,119.7 Z" fill="#30426B"></path>
		<path d="M188.4,174 L200.9,243.4 L256.7,145.1 L188.4,174 Z" fill="#6699A1"></path>
		<path d="M157.1,0.3 L178.6,119.7 L256.7,145.1 L157.1,0.3 Z" fill="#6699A1"></path>
	</g>
</svg>
